X: 21546
T: Kiley's
R: reel
M: 4/4
K: Amajor
|:Aceg agfe|dcBA GB (3BBB|(3BBB GB EBGB|cBAc BAGB|
Aceg agfe|dcBA GB (3BBB|(3BBB GB EBGB|1 cBAG AdcB:|2 cBAG ABcd||
|:(3eee ef ecAc|df (3fff f2 af|e2 ef ecAc|BABc (3BBB cd|
(3eee ef ecAc|df (3fff f2 af|eagf edcB|1 AECB, A,Bcd:|2 AECB, A,2 cB||

